X: 387
T: Fanshen le
%%abc-version 2.0
%%abcx-abcm2ps-target-version 5.9.1 (29 Sep 2008)
%%abc-creator hum2abc beta
%%abcx-conversion-date 2013/10/02 07:52:30
%%abc-edited-by Helmut Schaffrath
%%humdrum-veritas 4215153894
%%humdrum-veritas-data 2132109775
%%continueall 1
%%barnumbers 0
L: 1/8
M: 2/4
K: Bb
d d/ f/ d d/ c/ [I:setbarnb 1]| 
B B/ c/ B B | 
G F D F | 
G4 | 
B B/ G/ B c | 
d d/ f/ d d/ c/ | 
B c d d/ c/ | 
dB3 | 
G G/ F/ D F | 
G4 | 
F F/ G/ B B/ G/ | 
F F/ B/ G F | 
d f c d | 
F F/ G/ D C | 
B4 |]  



